public/theme/icons/inactive-soy.svg

<svg width="33" height="34" viewBox="0 0 33 34" fill="none" xmlns="http://www.w3.org/2000/svg">
<circle cx="15" cy="15" r="15" fill="#E1E1E1"/>
<path fill-rule="evenodd" clip-rule="evenodd" d="M28.0514 22.3986C29.2917 20.2154 30 17.6904 30 15C30 6.71573 23.2843 0 15 0C6.71573 0 0 6.71573 0 15C0 23.2843 6.71573 30 15 30C17.6905 30 20.2156 29.2916 22.3989 28.0512L8.59961 14.252L14.2522 8.59937L28.0514 22.3986Z" fill="#E1E1E1"/>
<g filter="url(#filter0_d_105_29893)">
<circle cx="14.8995" cy="14.8999" r="4" transform="rotate(-45 14.8995 14.8999)" fill="white"/>
<path d="M21.2636 15.6071C22.4541 16.7977 22.7875 19.1791 22.3243 20.9104C22.2747 21.0957 22.4116 21.3556 22.3243 21.6175C22.2008 21.988 21.9876 22.2011 21.6172 22.3246C21.3552 22.412 21.0953 22.2751 20.91 22.3246C19.1788 22.7878 16.7973 22.4545 15.6067 21.264C14.0447 19.7019 14.0447 17.1692 15.6067 15.6071C17.1688 14.045 19.7015 14.045 21.2636 15.6071Z" fill="white"/>
<path d="M14.285 8.62849C13.0944 7.43794 10.7129 7.10463 8.98167 7.56783C8.79643 7.61739 8.53653 7.4805 8.27456 7.56783C7.90408 7.69132 7.69095 7.90445 7.56746 8.27493C7.48013 8.53691 7.61702 8.7968 7.56746 8.98204C7.10426 10.7133 7.43757 13.0948 8.62812 14.2853C10.1902 15.8474 12.7229 15.8474 14.285 14.2853C15.8471 12.7232 15.8471 10.1906 14.285 8.62849Z" fill="white"/>
<circle cx="11.3641" cy="11.3644" r="2" transform="rotate(-45 11.3641 11.3644)" fill="#E1E1E1"/>
<circle cx="14.8997" cy="14.8999" r="2" transform="rotate(-45 14.8997 14.8999)" fill="#E1E1E1"/>
<circle cx="18.4354" cy="18.4355" r="2" transform="rotate(-45 18.4354 18.4355)" fill="#E1E1E1"/>
</g>
<defs>
<filter id="filter0_d_105_29893" x="3.3667" y="5.36731" width="23.1582" height="23.1578" filterUnits="userSpaceOnUse" color-interpolation-filters="sRGB">
<feFlood flood-opacity="0" result="BackgroundImageFix"/>
<feColorMatrix in="SourceAlpha" type="matrix" values="0 0 0 0 0 0 0 0 0 0 0 0 0 0 0 0 0 0 127 0" result="hardAlpha"/>
<feOffset dy="2"/>
<feGaussianBlur stdDeviation="2"/>
<feComposite in2="hardAlpha" operator="out"/>
<feColorMatrix type="matrix" values="0 0 0 0 0 0 0 0 0 0 0 0 0 0 0 0 0 0 0.1 0"/>
<feBlend mode="normal" in2="BackgroundImageFix" result="effect1_dropShadow_105_29893"/>
<feBlend mode="normal" in="SourceGraphic" in2="effect1_dropShadow_105_29893" result="shape"/>
</filter>
</defs>
</svg>

<svg xmlns="http://www.w3.org/2000/svg" width="33" height="34" fill="none"><circle cx="15" cy="15" r="15" fill="#E1E1E1"/><path fill="#E1E1E1" fill-rule="evenodd" d="M28.051 22.399A14.93 14.93 0 0 0 30 15c0-8.284-6.716-15-15-15S0 6.716 0 15s6.716 15 15 15c2.69 0 5.216-.708 7.399-1.949l-13.8-13.799 5.653-5.653z" clip-rule="evenodd"/><g filter="url(#a)"><circle cx="14.899" cy="14.9" r="4" fill="#fff" transform="rotate(-45 14.9 14.9)"/><path fill="#fff" d="M21.264 15.607c1.19 1.19 1.524 3.572 1.06 5.303-.05.186.088.446 0 .707-.123.371-.336.584-.707.708-.262.087-.522-.05-.707 0-1.731.463-4.113.13-5.303-1.061a4 4 0 0 1 5.657-5.657M14.285 8.628c-1.19-1.19-3.572-1.523-5.303-1.06-.186.05-.445-.087-.707 0-.37.123-.584.336-.708.707-.087.262.05.522 0 .707-.463 1.731-.13 4.113 1.061 5.303a4 4 0 0 0 5.657-5.657"/><circle cx="11.364" cy="11.364" r="2" fill="#E1E1E1" transform="rotate(-45 11.364 11.364)"/><circle cx="14.9" cy="14.9" r="2" fill="#E1E1E1" transform="rotate(-45 14.9 14.9)"/><circle cx="18.435" cy="18.436" r="2" fill="#E1E1E1" transform="rotate(-45 18.435 18.436)"/></g><defs><filter id="a" width="23.158" height="23.158" x="3.367" y="5.367" color-interpolation-filters="sRGB" filterUnits="userSpaceOnUse"><feFlood flood-opacity="0" result="BackgroundImageFix"/><feColorMatrix in="SourceAlpha" result="hardAlpha" values="0 0 0 0 0 0 0 0 0 0 0 0 0 0 0 0 0 0 127 0"/><feOffset dy="2"/><feGaussianBlur stdDeviation="2"/><feComposite in2="hardAlpha" operator="out"/><feColorMatrix values="0 0 0 0 0 0 0 0 0 0 0 0 0 0 0 0 0 0 0.1 0"/><feBlend in2="BackgroundImageFix" result="effect1_dropShadow_105_29893"/><feBlend in="SourceGraphic" in2="effect1_dropShadow_105_29893" result="shape"/></filter></defs></svg>
